icons/svg/javascript.svg

<svg width="24" height="24" viewBox="0 0 24 24" fill="none" xmlns="http://www.w3.org/2000/svg">
<rect x="3.75" y="3.75" width="16.5" height="16.5" rx="3" stroke="currentColor" stroke-width="1.5" stroke-linecap="round" stroke-linejoin="round"/>
<path d="M11.5 11.25V15.75C11.5 16.5784 10.8284 17.25 10 17.25H9" stroke="currentColor" stroke-width="1.5" stroke-linecap="round" stroke-linejoin="round"/>
<path d="M17.25 11.25H15.75C14.9216 11.25 14.25 11.9216 14.25 12.75V12.75C14.25 13.5784 14.9216 14.25 15.75 14.25V14.25C16.5784 14.25 17.25 14.9216 17.25 15.75V15.75C17.25 16.5784 16.5784 17.25 15.75 17.25H14.25" stroke="currentColor" stroke-width="1.5" stroke-linecap="round" stroke-linejoin="round"/>
</svg>

<svg xmlns="http://www.w3.org/2000/svg" width="24" height="24" fill="none" viewBox="0 0 24 24"><rect width="16.5" height="16.5" x="3.75" y="3.75" stroke="currentColor" stroke-linecap="round" stroke-linejoin="round" stroke-width="1.5" rx="3"/><path stroke="currentColor" stroke-linecap="round" stroke-linejoin="round" stroke-width="1.5" d="M11.5 11.25v4.5a1.5 1.5 0 0 1-1.5 1.5H9m8.25-6h-1.5a1.5 1.5 0 0 0-1.5 1.5v0a1.5 1.5 0 0 0 1.5 1.5v0a1.5 1.5 0 0 1 1.5 1.5v0a1.5 1.5 0 0 1-1.5 1.5h-1.5"/></svg>
